X:1
T:Place Me on the Heavenly Side
T:Place Me on the Heavenly Side
T:Sallie M. Rather
T:Sallie M. Rather, 1906
T:Public Domain Courtesy of the Cyber Hymnal™
T:Public Domain Courtesy of the Cyber Hymnal™
C:Sallie M. Rather
Z:Public Domain
Z:Courtesy of the Cyber Hymnal™
%%score ( 1 2 ) ( 3 4 )
L:1/8
Q:1/4=93
M:4/4
K:D
V:1 treble 
V:2 treble 
V:3 bass 
V:4 bass 
V:1
 D2 | [DF]>[DF] [DF]>[CE] D3 [FA] | [Fd]>[Fd] [Fd]>[GB] [FA]4 | [DF]>[DF] [DF]>[DF] [EG]2 [DF]2 | %4
w: 1.~If|you in Heav’n would stay, through-|out e- ter- nal day,|Self and sin must be de-|
w: 2.~O!|sin- ner, come just now, and|un- to Je- sus bow,|Give up all your sin and|
w: 3.~And|when my days are done, and|I my race have run,|I must cross the chill- y|
 [CE]6 D2 | [DF]>[DF] [DF]>[CE] D3 [FA] | [Fd]>[Fd] [Fd]>[GB] [FA]2 [EG]2 | %7
w: nied; To|Je- sus we must plead, He’ll|make us free in- deed, And|
w: pride; For|Je- sus is the way, just|look to Him and say, “Lord|
w: tide. But|Je- sus will be there, I|have no need to fear, He’ll|
 [DF]>[DF] [DF]>D [DF]2 [CE]2 | D6 ||"^Refrain" [FA]2 | [Fd]4 [FA]4 | %11
w: place us on the heav’n- ly|side.|I’ll|trust Him|
w: place me on the heav’n- ly|side.”|||
w: land me on the heav’n- ly|side.|||
 [GB]>[Bd] [Ac]>[GB] [FA]2 [FA]2 | [Fd]4 [FA]4 | [GB]>[FA] [DF]>D [CE]2 D2 | %14
w: what- so- e’er be- tide, I’ll|trust Him,|He has ne’er de- nied; To|
w: |||
w: |||
 [DF]>[DF] [DF]>[CE] D3 [FA] | [Fd]>[Fd] [Fd]>[GB] [FA]2 [EG]2 | [DF]>[DF] [DF]>D [DF]2 [CE]2 | %17
w: Je- sus I will plead, He’ll|meet my ev- ery need, And|keep me on the heav’n- ly|
w: |||
w: |||
 D6 |] %18
w: side.|
w: |
w: |
V:2
 D2 | x4 D3 x | x8 | x8 | x6 D2 | x4 D3 x | x8 | x7/2 D/ x4 | D6 || x2 | x8 | x8 | x8 | %13
 x7/2 D/ x3/2 D2 x/ | x4 D3 x | x8 | x7/2 D/ x4 | D6 |] %18
V:3
 [D,F,]2 | [D,A,]>[D,A,] [D,A,]>[D,G,] [D,F,]3 [D,A,] | [D,D]>[D,D] [D,D]>[D,D] [D,D]4 | %3
w: ~|~ ~ ~ ~ ~ ~|~ ~ ~ ~ ~|
 [D,A,]>[D,A,] [D,A,]>[D,A,] [C,A,]2 [D,A,]2 | [A,,A,]6 [D,F,]2 | %5
w: ~ ~ ~ ~ ~ ~|~ ~|
 [D,A,]>[D,A,] [D,A,]>[D,G,] [D,F,]3 [D,A,] | [D,D]>[D,D] [D,D]>[D,D] [D,D]2 [G,B,]2 | %7
w: ~ ~ ~ ~ ~ ~|~ ~ ~ ~ ~ ~|
 A,>A, A,>A, [A,,A,]2 [A,,G,]2 | [D,F,]6 || [D,A,]2 | [D,A,]2 [D,A,]2 [D,D]2 [D,D]2 | %11
w: ~ ~ ~ ~ ~ ~|~|~|trust Him, trust Him,|
 [G,D]>[G,D] [G,D]>[G,D] [D,D]2 [D,D]2 | [D,A,]2 [D,A,]2 [D,D]2 [D,D]2 | %13
w: ~ ~ ~ ~ ~ ~|trust Him, trust Him,|
 [D,D]>[D,D] [D,A,]>[D,F,] [A,,A,]2 [D,F,]2 | [D,A,]>[D,A,] [D,A,]>[D,G,] [D,F,]3 [D,A,] | %15
w: ||
 [D,D]>[D,D] [D,D]>[D,D] [D,D]2 [G,B,]2 | A,>A, A,>A, [A,,A,]2 [A,,G,]2 | [D,F,]6 |] %18
w: |||
V:4
 x2 | x8 | x8 | x8 | x8 | x8 | x8 | A,>A, A,>A, x4 | x6 || x2 | x8 | x8 | x8 | x8 | x8 | x8 | %16
 A,>A, A,>A, x4 | x6 |] %18

